porfolio/src/assets/SVG/linkedin.svg

<svg width="52" height="52" viewBox="0 0 24 24" fill="none" xmlns="http://www.w3.org/2000/svg">
    <path
        d="M4.98304 7.19698C6.19144 7.19698 7.17104 6.21738 7.17104 5.00898C7.17104 3.80058 6.19144 2.82098 4.98304 2.82098C3.77464 2.82098 2.79504 3.80058 2.79504 5.00898C2.79504 6.21738 3.77464 7.19698 4.98304 7.19698Z"
        fill="#F2EAEA" />
    <path
        d="M9.23697 8.85499V20.994H13.006V14.991C13.006 13.407 13.304 11.873 15.268 11.873C17.205 11.873 17.229 13.684 17.229 15.091V20.995H21V14.338C21 11.068 20.296 8.55499 16.474 8.55499C14.639 8.55499 13.409 9.56199 12.906 10.515H12.855V8.85499H9.23697ZM3.09497 8.85499H6.86997V20.994H3.09497V8.85499Z"
        fill="#F2EAEA" />
</svg>

<svg xmlns="http://www.w3.org/2000/svg" width="52" height="52" viewBox="0 0 24 24">
    <circle cx="4.983" cy="5.009" r="2.188" />
    <path
        d="M9.237 8.855v12.139h3.769v-6.003c0-1.584.298-3.118 2.262-3.118 1.937 0 1.961 1.811 1.961 3.218v5.904H21v-6.657c0-3.27-.704-5.783-4.526-5.783-1.835 0-3.065 1.007-3.568 1.96h-.051v-1.66H9.237zm-6.142 0H6.87v12.139H3.095z" />
</svg>
